dist/svg/color.svg

<!-- Generated by Trend Micro Style Portal -->
<svg version="1.1" xmlns="http://www.w3.org/2000/svg" width="16" height="16" viewBox="0 0 16 16">
  <title>color</title>
  <path fill="rgb(34,34,34)" d="M8 0c-4.418 0-8 3.582-8 8s3.582 8 8 8v0c0.736-0 1.333-0.597 1.333-1.334 0-0.346-0.132-0.661-0.348-0.898l0.001 0.001c-0.21-0.234-0.338-0.544-0.338-0.885 0-0.734 0.595-1.328 1.328-1.328 0.002 0 0.004 0 0.005 0h1.573c2.454-0.001 4.444-1.99 4.444-4.444v-0c0-3.929-3.582-7.111-8-7.111zM3.111 8c-0.736 0-1.333-0.597-1.333-1.333s0.597-1.333 1.333-1.333c0.736 0 1.333 0.597 1.333 1.333v0c0 0.001 0 0.001 0 0.002 0 0.735-0.596 1.332-1.332 1.332-0.001 0-0.001 0-0.002 0h0zM5.778 4.444c-0.736 0-1.333-0.597-1.333-1.333s0.597-1.333 1.333-1.333c0.736 0 1.333 0.597 1.333 1.333v0c0 0.001 0 0.001 0 0.002 0 0.735-0.596 1.332-1.332 1.332-0.001 0-0.001 0-0.002 0h0zM10.222 4.444c-0.736 0-1.333-0.597-1.333-1.333s0.597-1.333 1.333-1.333c0.736 0 1.333 0.597 1.333 1.333v0c0 0.001 0 0.001 0 0.002 0 0.735-0.596 1.332-1.332 1.332-0.001 0-0.001 0-0.002 0h0zM12.889 8c-0.736 0-1.333-0.597-1.333-1.333s0.597-1.333 1.333-1.333c0.736 0 1.333 0.597 1.333 1.333v0c0 0.001 0 0.001 0 0.002 0 0.735-0.596 1.332-1.332 1.332-0.001 0-0.001 0-0.002 0h0z"></path>
</svg>

<svg width="16" height="16" viewBox="0 0 16 16" fill="rgb(34, 34, 34)" xmlns="http://www.w3.org/2000/svg"><title>color</title><path d="M8 0C3.582 0 0 3.582 0 8C0 12.418 3.582 16 8 16C8.736 16 9.333 15.403 9.333 14.666C9.333 14.32 9.201 14.005 8.985 13.768L8.986 13.769C8.776 13.535 8.648 13.225 8.648 12.884C8.648 12.15 9.243 11.556 9.976 11.556C9.978 11.556 9.981 11.556 9.981 11.556H11.554C14.008 11.555 15.998 9.566 15.998 7.112C15.998 3.183 12.416 0.001 7.998 0.001L8 0ZM3.111 8C2.375 8 1.778 7.403 1.778 6.667C1.778 5.931 2.375 5.334 3.111 5.334C3.847 5.334 4.444 5.931 4.444 6.667V6.669C4.444 7.404 3.848 8.001 3.112 8.001H3.11L3.111 8ZM5.778 4.444C5.042 4.444 4.445 3.847 4.445 3.111C4.445 2.375 5.042 1.778 5.778 1.778C6.514 1.778 7.111 2.375 7.111 3.111V3.113C7.111 3.848 6.515 4.445 5.779 4.445H5.777L5.778 4.444ZM10.222 4.444C9.486 4.444 8.889 3.847 8.889 3.111C8.889 2.375 9.486 1.778 10.222 1.778C10.958 1.778 11.555 2.375 11.555 3.111V3.113C11.555 3.848 10.959 4.445 10.223 4.445H10.221L10.222 4.444ZM12.889 8C12.153 8 11.556 7.403 11.556 6.667C11.556 5.931 12.153 5.334 12.889 5.334C13.625 5.334 14.222 5.931 14.222 6.667V6.669C14.222 7.404 13.626 8.001 12.89 8.001H12.888L12.889 8Z" fill="rgb(34, 34, 34)" fill-opacity="1.00"/></svg>
